X:1
T:Tis Midnight Hour, 88.86 D
T:Tis Midnight Hour, 88.86 D
T:Anonymous
T:Public Domain Courtesy of the Cyber Hymnal™
C:Anonymous
Z:Public Domain
Z:Courtesy of the Cyber Hymnal™
%%score ( 1 2 ) ( 3 4 )
L:1/8
Q:1/4=110
M:4/4
K:Db
V:1 treble 
V:2 treble 
V:3 bass 
V:4 bass 
V:1
 D | D2 D2 [Fd]3 [Fc] | Bd [Gd]2 [DF]3 [DA] | [CA]2 [EG]2 [CE]3 [GB] | [GB]2 [FA]2 [DF]3 D | %5
 D2 D2 [Fd]3 [Fc] | Bd [Gd]2 [DF]3 [DA] | [CA]2 [EG]2 [CE]3 [A,C] | [A,D]6 z [DA] | %9
 [CA]2 [EG]2 [CE]3 [GB] | [GB]2 [FA]2 [DF]3 [DA] | [CA]2 [EG]2 [CE]3 [GB] | [GB]2 [FA]2 [DF]3 D | %13
 D2 D2 [Fd]3 [Fc] | Bd [Gd]2 [DF]3 [DA] | [CA]2 [EG]2 [CE]3 [A,C] | [A,D]6- [A,D] |] %17
V:2
 D | D2 D2 x4 | G2 x6 | x8 | x7 D | D2 D2 x4 | G2 x6 | x8 | x8 | x8 | x8 | x8 | x7 D | D2 D2 x4 | %14
 G2 x6 | x8 | x7 |] %17
V:3
 [D,F,] | [D,F,]2 [D,F,]2 [D,A,]3 [D,A,] | G,B, [G,,B,]2 [D,A,]3 [D,F,] | %3
 [A,,E,]2 [A,,A,]2 [A,,A,]3 [A,,C] | [D,D]2 [D,D]2 [D,A,]3 [D,F,] | %5
 [D,F,]2 [D,F,]2 [D,A,]3 [D,A,] | G,B, [G,,B,]2 [D,A,]3 [D,F,] | %7
 [A,,E,]2 [A,,A,]2 [A,,A,]3 [A,,G,] | [D,F,]6 z [D,F,] | [A,,E,]2 [A,,A,]2 [A,,A,]3 [A,,C] | %10
 [D,D]2 [D,D]2 [D,A,]3 [D,F,] | [A,,E,]2 [A,,A,]2 [A,,A,]3 [A,,C] | [D,D]2 [D,D]2 [D,A,]3 [D,F,] | %13
 [D,F,]2 [D,F,]2 [D,A,]3 [D,A,] | G,B, [G,,B,]2 [D,A,]3 [D,F,] | %15
 [A,,E,]2 [A,,A,]2 [A,,A,]3 [A,,G,] | [D,F,]6- [D,F,] |] %17
V:4
 x | x8 | G,,2 x6 | x8 | x8 | x8 | G,,2 x6 | x8 | x8 | x8 | x8 | x8 | x8 | x8 | G,,2 x6 | x8 | %16
 x7 |] %17

